X:143
T:Had The Lass 'till I Win At Her. Ru2.143
%%VWML:RutherfordVol2-2249-p72-0
F:http://www.vwml.org/record/RutherfordVol2/2249/p72
Z:vmp.Steve Mansfield 2015 www.village-music-project.org.uk
M:C|
L:1/8
W:The first Man Leads his Partner round behind
W:the 2d Man & round behind the 3d Wo. .| Then
W:Round the 4d Man & round the 2d Wo. into your
W:Own Places :| Cross over two Cou. .|. Lead up
W:To the Top Foot it & cast off :|
Q:1/2=60
K:Amix
|:e | Aeeg fdec | Aeeg BGdB | Aeeg fdef | gddg BG d :|
|: B | Ag (f/g/a) fdec | Ag (f/g/a) (GB/c/)dB | \
Ag f/g/a fdef | Tg>feg BG d :|
T:Fresh Herring. Ru2.144
B:RUTHERFORD Complete Collection of 200 Country Dances Vol.2; 1759.
Z:vmp.Steve Mansfield 2015 www.village-music-project.org.uk
M:C|
L:1/8
W:First Cou. foot it cast off two Cou. .|
W:Lead up to the Top Foot it & cast off :|
W:Hands round all Six .|. Right hand &
W:Left at Top :|
Q:1/2=60
K:G
|:g>agd BG (B/c/d/B/) | g>agf eg (f/g/a) | g>agd BG (B/c/d/B/) | cABG E/E/E E2 ||
BG (B/c/d/B/) gd (B/c/d/c/) | BG (B/c/d/B/) =Fc (A/B/c/A/) | \
BG (B/c/d/B/) gd (B/c/d/B/) | cABG E/E/E E2 |]
